src/actions/16/format-indent-less.svg

<svg xmlns="http://www.w3.org/2000/svg" viewBox="0 0 16 16">
    <path d="M2 2v1h12V2H2zm3 2v1h9V4H5zm9 3-3 2.5 3 2.5V7zM2 8v1h7V8H2zm5 2v1h2v-1H7zm-5 3v1h12v-1H2z" style="fill:currentColor;fill-opacity:1;stroke:none;color:#050505;opacity:.7"/>
</svg>

<svg xmlns="http://www.w3.org/2000/svg" viewBox="0 0 16 16">
  <defs id="defs3051">
    <style type="text/css" id="current-color-scheme">
      .ColorScheme-Text {
        color:#363636;
      }
      </style>
  </defs>
 <path style="fill:currentColor;fill-opacity:1;stroke:none" 
       d="M 2 2 L 2 3 L 14 3 L 14 2 L 2 2 z M 5 4 L 5 5 L 14 5 L 14 4 L 5 4 z M 14 7 L 11 9.5 L 14 12 L 14 7 z M 2 8 L 2 9 L 9 9 L 9 8 L 2 8 z M 7 10 L 7 11 L 9 11 L 9 10 L 7 10 z M 2 13 L 2 14 L 4 14 L 14 14 L 14 13 L 4 13 L 2 13 z "
     class="ColorScheme-Text"
     />
</svg>
